!!!OTL: Es fliegen zwei Tauben wohl ueber den Rhein,: sie kommen den ganzen Sommer nicht heim.
!!!ARE: Europa, Mitteleuropa, Lothringen, Weiler
!!!SCT: D0032
!!!YEM: Copyright 1995, estate of Helmut Schaffrath.
**kern
*ICvox
*Ivox
*M3/4
*k[f#]
*G:
{4d
=1
4.g
8a
4b
=2
4a
4a
4d
=3
4e
4f#
4e
=4
2d}
{4d
=5
4g
4a
4b
=6
4a
4a
4dd
=7
4.cc#
8dd
4ee
=8
2dd}
{4dd
=9
4g
4a
4b
=10
4cc
4b
4a
=11
4g
4b
4a
=12
2g}
==
!!!AGN: Liebes - Lied
!! Achttonskala ( Ionisch, modulierend in die Dominanttonart )
!!!ONB: ESAC (Essen Associative Code) Database: DVA
!!!AMT: simple triple
!!!AIN: vox
!!!EED: Helmut Schaffrath
!!!EEV: 1.0
*-
